templates/construction-template/img/instagram-with-circle.svg

<!-- Generated by IcoMoon.io -->
<svg version="1.1" xmlns="http://www.w3.org/2000/svg" width="20" height="20" viewBox="0 0 20 20">
<title>instagram-with-circle</title>
<path fill="#e1e1e1" d="M13 10c0 1.657-1.343 3-3 3s-3-1.343-3-3c0-0.171 0.018-0.338 0.049-0.5h-1.049v3.997c0 0.278 0.225 0.503 0.503 0.503h6.995c0.277 0 0.502-0.225 0.502-0.503v-3.997h-1.049c0.031 0.162 0.049 0.329 0.049 0.5zM10 12c1.104 0 2-0.896 2-2s-0.896-2-2-2-2 0.896-2 2 0.896 2 2 2zM12.4 7.9h1.199c0.166 0 0.301-0.135 0.301-0.3v-1.199c0-0.166-0.135-0.301-0.301-0.301h-1.199c-0.166 0-0.301 0.135-0.301 0.301v1.199c0.001 0.165 0.136 0.3 0.301 0.3zM10 0.4c-5.302 0-9.6 4.298-9.6 9.6s4.298 9.6 9.6 9.6c5.302 0 9.6-4.298 9.6-9.6s-4.298-9.6-9.6-9.6zM15 13.889c0 0.611-0.5 1.111-1.111 1.111h-7.778c-0.611 0-1.111-0.5-1.111-1.111v-7.778c0-0.611 0.5-1.111 1.111-1.111h7.778c0.611 0 1.111 0.5 1.111 1.111v7.778z"></path>
</svg>

<svg xmlns="http://www.w3.org/2000/svg" width="20" height="20"><path fill="#e1e1e1" d="M13 10a3 3 0 1 1-6 0c0-.171.018-.338.049-.5H6v3.997c0 .278.225.503.503.503h6.995a.503.503 0 0 0 .502-.503V9.5h-1.049c.031.162.049.329.049.5zm-3 2a2 2 0 1 0-.001-4.001A2 2 0 0 0 10 12zm2.4-4.1h1.199a.301.301 0 0 0 .301-.3V6.401a.301.301 0 0 0-.301-.301H12.4a.301.301 0 0 0-.301.301V7.6c.001.165.136.3.301.3zM10 .4C4.698.4.4 4.698.4 10s4.298 9.6 9.6 9.6 9.6-4.298 9.6-9.6S15.302.4 10 .4zm5 13.489C15 14.5 14.5 15 13.889 15H6.111C5.5 15 5 14.5 5 13.889V6.111C5 5.5 5.5 5 6.111 5h7.778C14.5 5 15 5.5 15 6.111v7.778z"/></svg>
